fs/comment_arrow_left_12_filled.svg

<svg viewBox="0 0 12 12" fill="none" xmlns="http://www.w3.org/2000/svg" height="1em" width="1em">
  <path d="M12 3.5C12 5.433 10.433 7 8.5 7C6.567 7 5 5.433 5 3.5C5 1.567 6.567 0 8.5 0C10.433 0 12 1.567 12 3.5ZM6.5 3C6.22386 3 6 3.22386 6 3.5C6 3.77614 6.22386 4 6.5 4L9.29289 4L8.64645 4.64645C8.45118 4.84171 8.45118 5.15829 8.64645 5.35355C8.84171 5.54882 9.15829 5.54882 9.35355 5.35355L10.8536 3.85355C10.9015 3.80562 10.9377 3.75036 10.9621 3.69139C10.9861 3.63331 10.9996 3.5697 11 3.503L11 3.5L11 3.497C10.9996 3.4303 10.9861 3.36669 10.9621 3.30861C10.9377 3.24964 10.9015 3.19438 10.8536 3.14645L9.35355 1.64645C9.15829 1.45118 8.84171 1.45118 8.64645 1.64645C8.45118 1.84171 8.45118 2.15829 8.64645 2.35355L9.29289 3L6.5 3ZM8.5 8C9.41826 8 10.2723 7.72496 10.9842 7.25277C10.8599 8.23801 10.019 9 9 9H6.65139L3.77735 10.916C3.62392 11.0183 3.42665 11.0278 3.26407 10.9408C3.10149 10.8538 3 10.6844 3 10.5L3 9C1.89543 9 1 8.10457 1 7V3C1 1.89543 1.89543 1 3 1H4.75777C4.27914 1.71505 4 2.57493 4 3.5C4 5.98528 6.01472 8 8.5 8Z" fill="#212121"/>
</svg>

<svg viewBox="0 0 12 12" fill="none" xmlns="http://www.w3.org/2000/svg" height="1em" width="1em">
  <path d="M12 3.5a3.5 3.5 0 1 1-7 0 3.5 3.5 0 0 1 7 0ZM6.5 3a.5.5 0 0 0 0 1h2.793l-.647.646a.5.5 0 1 0 .708.708l1.5-1.5A.499.499 0 0 0 11 3.503v-.006a.5.5 0 0 0-.146-.35l-1.5-1.5a.5.5 0 1 0-.708.707L9.293 3H6.5Zm2 5a4.48 4.48 0 0 0 2.484-.747A2 2 0 0 1 9 9H6.651l-2.874 1.916A.5.5 0 0 1 3 10.5V9a2 2 0 0 1-2-2V3a2 2 0 0 1 2-2h1.758A4.5 4.5 0 0 0 8.5 8Z" fill="#212121"/>
</svg>
